src/_assets/img/logo.svg

<?xml version="1.0" encoding="UTF-8" standalone="no"?>
<svg width="287px" height="310px" viewBox="0 0 287 310" version="1.1" xmlns="http://www.w3.org/2000/svg" xmlns:xlink="http://www.w3.org/1999/xlink">
    <g id="Page-1" stroke="none" stroke-width="1" fill="none" fill-rule="evenodd">
        <g id="Master" transform="translate(-1348.000000, 0.000000)">
            <g id="Outline" transform="translate(1348.000000, 0.000000)">
                <rect id="FED-bg" fill="#333333" x="0" y="0" width="287" height="203"></rect>
                <path d="M72.864,262.344 C72.864,293.448156 60.5761229,309 36,309 L6.336,309 L6.336,219.576 L36.576,219.576 C49.7280658,219.576 59.0639724,223.247963 64.584,230.592 C70.1040276,237.936037 72.864,248.519931 72.864,262.344 L72.864,262.344 Z M45.432,282.864 C46.9200074,279.263982 47.664,273.216042 47.664,264.72 C47.664,256.223958 46.8720079,250.200018 45.288,246.648 C43.7039921,243.095982 40.3200259,241.32 35.136,241.32 L30.816,241.32 L30.816,288.264 L35.568,288.264 C40.6560254,288.264 43.9439926,286.464018 45.432,282.864 L45.432,282.864 Z M130.464,309 L82.08,309 L82.08,219.576 L131.904,219.576 L130.464,241.608 L106.704,241.608 L106.704,255 L127.296,255 L127.296,274.008 L106.704,274.008 L106.704,288.84 L131.904,288.84 L130.464,309 Z M204.48,309 L180.432,309 L177.696,294.888 L160.704,294.888 L157.968,309 L135.072,309 L151.488,219.576 L188.064,219.576 L204.48,309 Z M174.96,278.04 L169.92,246.072 L168.912,246.072 L163.872,278.04 L174.96,278.04 Z M278.496,262.344 C278.496,293.448156 266.208123,309 241.632,309 L211.968,309 L211.968,219.576 L242.208,219.576 C255.360066,219.576 264.695972,223.247963 270.216,230.592 C275.736028,237.936037 278.496,248.519931 278.496,262.344 L278.496,262.344 Z M251.064,282.864 C252.552007,279.263982 253.296,273.216042 253.296,264.72 C253.296,256.223958 252.504008,250.200018 250.92,246.648 C249.335992,243.095982 245.952026,241.32 240.768,241.32 L236.448,241.32 L236.448,288.264 L241.2,288.264 C246.288025,288.264 249.575993,286.464018 251.064,282.864 L251.064,282.864 Z" id="DEAD" stroke="#333333" fill="#FFFFFF"></path>
                <path d="M96.72,135.608 L72.96,135.608 L72.96,149 L92.112,149 L92.112,168.008 L72.96,168.008 L72.96,203 L48.336,203 L48.336,113.576 L98.16,113.576 L96.72,135.608 Z M152.16,203 L103.776,203 L103.776,113.576 L153.6,113.576 L152.16,135.608 L128.4,135.608 L128.4,149 L148.992,149 L148.992,168.008 L128.4,168.008 L128.4,182.84 L153.6,182.84 L152.16,203 Z M228.48,156.344 C228.48,187.448156 216.192123,203 191.616,203 L161.952,203 L161.952,113.576 L192.192,113.576 C205.344066,113.576 214.679972,117.247963 220.2,124.592 C225.720028,131.936037 228.48,142.519931 228.48,156.344 L228.48,156.344 Z M201.048,176.864 C202.536007,173.263982 203.28,167.216042 203.28,158.72 C203.28,150.223958 202.488008,144.200018 200.904,140.648 C199.319992,137.095982 195.936026,135.32 190.752,135.32 L186.432,135.32 L186.432,182.264 L191.184,182.264 C196.272025,182.264 199.559993,180.464018 201.048,176.864 L201.048,176.864 Z" id="FED" fill="#FFFFFF"></path>
            </g>
        </g>
    </g>
</svg>

<svg xmlns="http://www.w3.org/2000/svg" viewBox="0 0 287 310">
    <path fill="#333" d="M0 0h287v203H0z"/>
    <path fill="#333" d="M72.864 262.344C72.864 293.448 60.576 309 36 309H6.336v-89.424h30.24c13.152 0 22.488 3.672 28.008 11.016 5.52 7.344 8.28 17.928 8.28 31.752zm-27.432 20.52c1.488-3.6 2.232-9.648 2.232-18.144 0-8.496-.792-14.52-2.376-18.072-1.584-3.552-4.968-5.328-10.152-5.328h-4.32v46.944h4.752c5.088 0 8.376-1.8 9.864-5.4zM130.464 309H82.08v-89.424h49.824l-1.44 22.032h-23.76V255h20.592v19.008h-20.592v14.832h25.2l-1.44 20.16zm74.016 0h-24.048l-2.736-14.112h-16.992L157.968 309h-22.896l16.416-89.424h36.576L204.48 309zm-29.52-30.96l-5.04-31.968h-1.008l-5.04 31.968h11.088zm103.536-15.696c0 31.104-12.288 46.656-36.864 46.656h-29.664v-89.424h30.24c13.152 0 22.488 3.672 28.008 11.016 5.52 7.344 8.28 17.928 8.28 31.752zm-27.432 20.52c1.488-3.6 2.232-9.648 2.232-18.144 0-8.496-.792-14.52-2.376-18.072-1.584-3.552-4.968-5.328-10.152-5.328h-4.32v46.944h4.752c5.088 0 8.376-1.8 9.864-5.4z"/>
    <path fill="#fff" d="M96.72 135.608H72.96V149h19.152v19.008H72.96V203H48.336v-89.424H98.16l-1.44 22.032zM152.16 203h-48.384v-89.424H153.6l-1.44 22.032H128.4V149h20.592v19.008H128.4v14.832h25.2L152.16 203zm76.32-46.656c0 31.104-12.288 46.656-36.864 46.656h-29.664v-89.424h30.24c13.152 0 22.488 3.672 28.008 11.016 5.52 7.344 8.28 17.928 8.28 31.752zm-27.432 20.52c1.488-3.6 2.232-9.648 2.232-18.144 0-8.496-.792-14.52-2.376-18.072-1.584-3.552-4.968-5.328-10.152-5.328h-4.32v46.944h4.752c5.088 0 8.376-1.8 9.864-5.4z"/>
</svg>
